src/assets/images/logos/logo-02.svg

<svg height="40" viewBox="0 0 175 40" width="175" xmlns="http://www.w3.org/2000/svg" xmlns:xlink="http://www.w3.org/1999/xlink"><defs><path id="a" d="m62.705 17.14c-.2200011-.2800014-.5074982-.5024992-.8625-.6675s-.6974983-.2475-1.0275-.2475c-.1700008 0-.3424991.0149999-.5175.045-.1750009.0300002-.3324993.0874996-.4725.1725s-.2574995.1949993-.3525.33-.1425.307499-.1425.5175c0 .1800009.0374996.3299994.1125.45s.1849993.2249996.33.315c.1450007.0900005.317499.1724996.5175.2475s.4249988.1524996.675.2325c.3600018.1200006.7349981.2524993 1.125.3975.390002.1450007.7449984.3374988 1.065.5775s.584999.5374982.795.8925c.2100011.3550018.315.7974974.315 1.3275 0 .6100031-.1124989 1.1374978-.3375 1.5825s-.5274981.8124986-.9075 1.1025c-.3800019.2900015-.8149975.5049993-1.305.645-.4900024.1400007-.9949974.21-1.515.21-.7600038 0-1.4949964-.1324987-2.205-.3975-.7100035-.2650013-1.2999976-.6424975-1.77-1.1325l1.68-1.71c.2600013.3200016.6024979.5874989 1.0275.8025s.8474979.3225 1.2675.3225c.190001 0 .3749991-.0199998.555-.06s.3374993-.1049995.4725-.195c.1350007-.0900004.2424996-.2099992.3225-.36.0800004-.1500007.12-.3299989.12-.54 0-.200001-.0499995-.3699993-.15-.51s-.2424991-.2674994-.4275-.3825-.4149986-.2199995-.69-.315-.5874982-.1974994-.9375-.3075c-.3400017-.1100005-.6724984-.2399992-.9975-.39-.3250016-.1500007-.6149987-.3424988-.87-.5775s-.4599992-.5199983-.615-.855-.2325-.7424976-.2325-1.2225c0-.5900029.1199988-1.0949979.36-1.515s.5549981-.7649986.945-1.035c.390002-.2700013.8299976-.4674994 1.32-.5925.4900025-.1250006.9849975-.1875 1.485-.1875.600003 0 1.2124969.1099989 1.8375.33s1.1724977.5449979 1.6425.975zm14.31.51c0 .6200031-.1149988 1.1424979-.345 1.5675-.2300011.4250021-.539998.7674987-.93 1.0275-.3900019.2600013-.8399974.4499994-1.35.57-.5100025.1200006-1.0399972.18-1.59.18h-1.275v4.005h-2.565v-10.62h3.9c.5800029 0 1.1224975.0574994 1.6275.1725s.9449981.2999987 1.32.555.6699989.5899979.885 1.005.3225.9274969.3225 1.5375zm-2.565.015c0-.2500013-.0499995-.4549992-.15-.615s-.2349992-.2849996-.405-.375c-.1700009-.0900005-.3624989-.1499999-.5775-.18-.2150011-.0300002-.4374989-.045-.6675-.045h-1.125v2.505h1.08c.2400012 0 .4699989-.0199998.69-.06s.4174991-.1099995.5925-.21.3124995-.2324992.4125-.3975.15-.3724988.15-.6225zm13.41 7.335-.825-2.085h-4.11l-.78 2.085h-2.79l4.455-10.62h2.49l4.41 10.62zm-2.85-7.785-1.35 3.645h2.67zm18.66 6.315c-.470002.5400027-1.049997.9674984-1.74 1.2825s-1.484995.4725-2.385.4725c-.8200041 0-1.5774965-.1349986-2.2725-.405s-1.2974974-.6524975-1.8075-1.1475c-.5100025-.4950025-.9099985-1.0874965-1.2-1.7775-.2900014-.6900035-.435-1.4499959-.435-2.28 0-.8500043.1474985-1.6199966.4425-2.31.2950015-.6900035.7024974-1.2774976 1.2225-1.7625s1.1299965-.8574987 1.83-1.1175 1.454996-.39 2.265-.39c.750004 0 1.487496.1324987 2.2125.3975s1.312498.6524974 1.7625 1.1625l-1.74 1.74c-.240001-.3300017-.554998-.5749992-.945-.735s-.789998-.24-1.2-.24c-.4500022 0-.8624981.0824992-1.2375.2475s-.6974986.3924985-.9675.6825c-.2700013.2900014-.4799992.632498-.63 1.0275-.1500007.395002-.225.8274976-.225 1.2975 0 .4800024.0749993.919998.225 1.32.1500008.400002.3574987.7424986.6225 1.0275s.5824982.5074992.9525.6675c.3700019.1600008.7749978.24 1.215.24.510003 0 .954998-.099999 1.335-.3s.684999-.4599984.915-.78zm4.095 1.47v-10.62h7.14v2.175h-4.665v1.995h4.41v2.055h-4.41v2.205h4.935v2.19zm16.65-8.43v8.43h-2.565v-8.43h-3v-2.19h8.565v2.19zm7.17 8.43v-10.62h2.58v10.62zm17.4 0 .06-7.515h-.045l-2.76 7.515h-1.8l-2.685-7.515h-.045l.06 7.515h-2.415v-10.62h3.645l2.415 6.81h.06l2.31-6.81h3.705v10.62zm7.695 0v-10.62h7.14v2.175h-4.665v1.995h4.41v2.055h-4.41v2.205h4.935v2.19zm-139.8381414-8.2600988c.01712 1.7348296.4793608 3.3403673 1.392429 4.8167915.0502901.0814985.0734735.1797603.1091402.2701755-.0870268-.0429784-.1872503-.0702635-.2592971-.1308969-2.7247596-2.2944406-3.8279315-5.2273155-3.1752304-8.7082098.6712478-3.579156 2.8991699-5.92156829 6.3520658-6.94698669 3.3945807-1.00776337 6.4235775-.15604193 8.9935435 2.28748553.0617035.05849343.1020069.13927857.1521186.20989869-.1351769-.0386984-.2790921-.0593851-.4048173-.11841354-6.0995454-2.86385984-13.181709 1.61267111-13.1599523 8.32015571zm15.7081616 12.6529676c1.5340259-3.4418392 1.5261792-6.7820282-.7903747-9.8937717-2.8121431-3.7778198-7.9618835-4.7959265-12.0492904-2.4494125-.1558636.0895235-.3322355.1432019-.4991558.213287.1096752-.1556853.2059753-.3229622.3311655-.4652724 3.4894543-3.9691718 9.5226595-4.1803188 13.3220576-.4693742 3.6438911 3.5595394 3.4969442 9.5190928-.3220706 13.0634738zm-14.1143047-5.3818773c-5.1950371-.012305-9.00923692-3.3068406-9.61949462-7.7428897-.62042271-4.5077393 2.14464032-8.73567314 6.52166102-9.96849356.1244769-.03513172.2571571-.04066006.3860923-.0599201-.0699068.0773968-.1280435.17173529-.2113253.23022873-3.4398775 2.41642075-4.8462166 6.52968603-3.5691694 10.44910263 1.2454821 3.8225815 4.8893733 6.3800641 8.9906902 6.3133674.1219802-.0019617.2444954.0292467.3668323.0451184-.1109235.0634868-.214357.1594302-.3334839.186002-1.0516335.2343304-2.1061202.4563557-2.5318026.5474842zm2.3754753 10.9889364c-.2913971-.0618817-1.1226102-.2386104-1.9538233-.415339.6978195-.1456986 1.4075874-.2494888 2.0914969-.4438724 3.6900796-1.0496718 6.2179588-4.1070236 6.6377562-7.9916652.3819907-3.531541-1.5206509-7.1055253-4.7056896-8.84838-.1330369-.0727601-.2462788-.1815436-.3689723-.2735638.1594303.0103434.3213572.0058851.4777558.0331701 4.6257962.8085647 7.867545 5.0425619 7.4504226 9.7272081-.4092757 4.5990461-4.4178591 8.2311673-9.6289463 8.2124422zm4.3193655-12.3830417c-.0178334 5.173102-3.3897657 8.9860535-7.8989317 9.5754461-4.5011409.588501-8.7606398-2.199032-9.94691514-6.5127443-.02996005-.1089618-.02550171-.2273754-.03691506-.3413306.08203347.0765052.17851196.1426669.24360374.2314771 2.45868582 3.3608757 6.52915106 4.751878 10.36706916 3.5392093 3.9533-1.2492271 6.3927258-4.6270445 6.4699443-8.9552018.0017833-.0971918.0294251-.1942053.0449401-.2913972.0654484.0861352.1683469.1637103.190817.2600105.242177 1.0346917.4715141 2.0724151.5663876 2.4945309zm-3.7962238-17.61688432c.3001355.06081177 1.1370553.22987206 1.973975.39911068-.7031695.15158359-1.417039.26536044-2.1075469.46117078-3.5347509 1.00241336-6.2010171 4.04014849-6.5801544 7.59968786-.4369174 4.1014952 1.2082104 7.1864888 4.7386813 9.2876157.0973702.0579584.183327.1346419.2748122.202587-.1082485.0035667-.2195287.02568-.3240322.0082033-4.6461262-.7771779-7.9856019-4.9730117-7.6152029-9.5640328.382169-4.735293 4.343494-8.39737419 9.6394679-8.39434252zm12.0936063 20.02178472c.008025 4.0282001-2.7868197 7.6786896-6.6564812 8.690733-.1105669.0290684-.2288021.029425-.3436489.0433351.0775751-.0795368.1453419-.1724487.234152-.2366488 3.4241841-2.4795508 4.8223198-6.542526 3.5670294-10.3745592-1.2811489-3.9101433-4.8271349-6.4132342-9.027427-6.3766758-.1189485.00107-.2382537-.04173-.3573806-.0638434.1160952-.0599201.2273754-.1328586.3488206-.1777986 5.9196067-2.1927904 12.2224524 2.184587 12.2349357 8.4954577zm-15.1289339 9.3309864c-2.4026891-.0529651-4.4959693-.8722298-6.2472055-2.5326943-.1032552-.0979051-.1794037-.224522-.2680355-.3377639.1332152.0358451.2755255.0522518.3980407.1100319 3.6495978 1.7210979 8.0606803.8196214 10.8048782-2.2118721 2.6771446-2.9571283 3.0798219-7.4142209.9844017-10.8585567-.0704418-.1157385-.1070002-.2521638-.1592519-.3787806.1096751.0716901.2268403.1339285.3279555.2157837 2.95267 2.3900273 4.0663636 6.4376658 2.763458 10.0342986-1.2872122 3.5538327-4.8035948 5.9880868-8.6042412 5.9595534zm4.6286673-11.7270058c-1.5456176 2.3718373-3.8586048 3.4245408-6.5646394 3.6583362-3.743223.3229622-7.3173857-1.8220348-8.88868335-5.2155455-1.56148931-3.3724674-.84904644-7.4390093 1.77584633-10.1100904.09398183-.0957652.22202538-.158182.33437557-.2361138-.04708008.1214452-.08684848.2462788-.14195358.3636223-1.80616305 3.8430898-.79536801 8.3856042 2.45297913 11.0176303 3.1782621 2.5754943 8.0012952 2.7994814 11.0395653.5125309zm3.205137-14.90130888c4.0617268-.01105669 7.6571112 2.70728288 8.7381697 6.60957948.0344184.1244769.0399468.2571571.0588501.3860923-.0847085-.0884534-.183327-.1672769-.2523421-.2666087-2.3078155-3.3202157-6.5138143-4.77185144-10.3579741-3.5718444-3.915315 1.2226554-6.4977644 4.743853-6.4941977 8.85159.0001783.1442719-.0222917.2885438-.0340617.432994-.0807852-.1284002-.187072-.2471704-.2386104-.3860923-2.152487-5.8029765 2.2874855-12.03876869 8.5801662-12.05571038zm-20.13272608 12.02933488c.06687511-.3265289.23843207-1.1634487.40981069-2.0007251.14231024.6765978.25020209 1.3626473.4326374 2.0280101.986185 3.5968111 3.98682679 6.1740888 7.72594809 6.6605829 3.7043462.4818575 7.2688789-1.3182422 9.2191356-4.6521895.0634867-.1084269.1556852-.2000903.234687-.2997788.0017834.1257252.0244317.2551954.0030317.3768189-.8035714 4.5507177-5.1044436 7.86701-9.652843 7.4468559-4.81054979-.4444074-8.39238085-4.3056872-8.37240748-9.5595744zm30.15858948.446369c-.0683018.3197522-.2518071 1.1793204-.4351341 2.0390668-.1391002-.7149395-.2033003-1.4546674-.4296057-2.1408953-1.2313937-3.7369813-3.8054614-6.0276768-7.7043697-6.5079293-4.0312318-.4968375-7.1361987 1.165767-9.2419623 4.6552212-.0572451.0948735-.1417752.173697-.2134653.2600104-.0039234-.1248335-.0297818-.2537687-.00856-.3741439.8123097-4.5854928 5.0650318-7.8431133 9.7056297-7.4386526 4.710683.4107024 8.3057107 4.2725172 8.3274674 9.5073227z"/><mask id="b" fill="#fff"><use fill="none" xlink:href="#a"/></mask></defs><g fill="none" fill-rule="evenodd"><path d="m0 0h175v40h-175z"/><g fill="#fff"><use xlink:href="#a"/><g mask="url(#b)"><path d="m0 0h175v40h-175z"/></g></g></g></svg>

<?xml version="1.0" encoding="UTF-8"?>
<svg width="175px" height="40px" viewBox="0 0 175 40" version="1.1" xmlns="http://www.w3.org/2000/svg" xmlns:xlink="http://www.w3.org/1999/xlink">
    <!-- Generator: Sketch 49 (51002) - http://www.bohemiancoding.com/sketch -->
    <title>Brand/Logo/logo-02</title>
    <desc>Created with Sketch.</desc>
    <defs>
        <path d="M62.705,17.14 C62.4849989,16.8599986 62.1975018,16.6375008 61.8425,16.4725 C61.4874982,16.3074992 61.1450017,16.225 60.815,16.225 C60.6449992,16.225 60.4725009,16.2399999 60.2975,16.27 C60.1224991,16.3000002 59.9650007,16.3574996 59.825,16.4425 C59.6849993,16.5275004 59.5675005,16.6374993 59.4725,16.7725 C59.3774995,16.9075007 59.33,17.079999 59.33,17.29 C59.33,17.4700009 59.3674996,17.6199994 59.4425,17.74 C59.5175004,17.8600006 59.6274993,17.9649996 59.7725,18.055 C59.9175007,18.1450005 60.089999,18.2274996 60.29,18.3025 C60.490001,18.3775004 60.7149988,18.4549996 60.965,18.535 C61.3250018,18.6550006 61.6999981,18.7874993 62.09,18.9325 C62.480002,19.0775007 62.8349984,19.2699988 63.155,19.51 C63.4750016,19.7500012 63.739999,20.0474982 63.95,20.4025 C64.1600011,20.7575018 64.265,21.1999974 64.265,21.73 C64.265,22.3400031 64.1525011,22.8674978 63.9275,23.3125 C63.7024989,23.7575022 63.4000019,24.1249986 63.02,24.415 C62.6399981,24.7050015 62.2050025,24.9199993 61.715,25.06 C61.2249976,25.2000007 60.7200026,25.27 60.2,25.27 C59.4399962,25.27 58.7050036,25.1375013 57.995,24.8725 C57.2849965,24.6074987 56.6950024,24.2300025 56.225,23.74 L57.905,22.03 C58.1650013,22.3500016 58.5074979,22.6174989 58.9325,22.8325 C59.3575021,23.0475011 59.7799979,23.155 60.2,23.155 C60.390001,23.155 60.5749991,23.1350002 60.755,23.095 C60.9350009,23.0549998 61.0924993,22.9900005 61.2275,22.9 C61.3625007,22.8099996 61.4699996,22.6900008 61.55,22.54 C61.6300004,22.3899993 61.67,22.2100011 61.67,22 C61.67,21.799999 61.6200005,21.6300007 61.52,21.49 C61.4199995,21.3499993 61.2775009,21.2225006 61.0925,21.1075 C60.9074991,20.9924994 60.6775014,20.8875005 60.4025,20.7925 C60.1274986,20.6974995 59.8150018,20.5950006 59.465,20.485 C59.1249983,20.3749995 58.7925016,20.2450008 58.4675,20.095 C58.1424984,19.9449993 57.8525013,19.7525012 57.5975,19.5175 C57.3424987,19.2824988 57.1375008,18.9975017 56.9825,18.6625 C56.8274992,18.3274983 56.75,17.9200024 56.75,17.44 C56.75,16.8499971 56.8699988,16.3450021 57.11,15.925 C57.3500012,15.5049979 57.6649981,15.1600014 58.055,14.89 C58.445002,14.6199987 58.8849976,14.4225006 59.375,14.2975 C59.8650025,14.1724994 60.3599975,14.11 60.86,14.11 C61.460003,14.11 62.0724969,14.2199989 62.6975,14.44 C63.3225031,14.6600011 63.8699977,14.9849979 64.34,15.415 L62.705,17.14 Z M77.015,17.65 C77.015,18.2700031 76.9000012,18.7924979 76.67,19.2175 C76.4399989,19.6425021 76.130002,19.9849987 75.74,20.245 C75.3499981,20.5050013 74.9000026,20.6949994 74.39,20.815 C73.8799975,20.9350006 73.3500028,20.995 72.8,20.995 L71.525,20.995 L71.525,25 L68.96,25 L68.96,14.38 L72.86,14.38 C73.4400029,14.38 73.9824975,14.4374994 74.4875,14.5525 C74.9925025,14.6675006 75.4324981,14.8524987 75.8075,15.1075 C76.1825019,15.3625013 76.4774989,15.6974979 76.6925,16.1125 C76.9075011,16.5275021 77.015,17.0399969 77.015,17.65 Z M74.45,17.665 C74.45,17.4149987 74.4000005,17.2100008 74.3,17.05 C74.1999995,16.8899992 74.0650008,16.7650004 73.895,16.675 C73.7249991,16.5849995 73.5325011,16.5250001 73.3175,16.495 C73.1024989,16.4649998 72.8800011,16.45 72.65,16.45 L71.525,16.45 L71.525,18.955 L72.605,18.955 C72.8450012,18.955 73.0749989,18.9350002 73.295,18.895 C73.5150011,18.8549998 73.7124991,18.7850005 73.8875,18.685 C74.0625009,18.5849995 74.1999995,18.4525008 74.3,18.2875 C74.4000005,18.1224992 74.45,17.9150012 74.45,17.665 Z M87.86,25 L87.035,22.915 L82.925,22.915 L82.145,25 L79.355,25 L83.81,14.38 L86.3,14.38 L90.71,25 L87.86,25 Z M85.01,17.215 L83.66,20.86 L86.33,20.86 L85.01,17.215 Z M103.67,23.53 C103.199998,24.0700027 102.620003,24.4974984 101.93,24.8125 C101.239997,25.1275016 100.445005,25.285 99.545,25.285 C98.7249959,25.285 97.9675035,25.1500014 97.2725,24.88 C96.5774965,24.6099986 95.9750026,24.2275025 95.465,23.7325 C94.9549975,23.2374975 94.5550015,22.6450035 94.265,21.955 C93.9749986,21.2649965 93.83,20.5050041 93.83,19.675 C93.83,18.8249957 93.9774985,18.0550034 94.2725,17.365 C94.5675015,16.6749965 94.9749974,16.0875024 95.495,15.6025 C96.0150026,15.1174976 96.6249965,14.7450013 97.325,14.485 C98.0250035,14.2249987 98.779996,14.095 99.59,14.095 C100.340004,14.095 101.077496,14.2274987 101.8025,14.4925 C102.527504,14.7575013 103.114998,15.1449974 103.565,15.655 L101.825,17.395 C101.584999,17.0649983 101.270002,16.8200008 100.88,16.66 C100.489998,16.4999992 100.090002,16.42 99.68,16.42 C99.2299978,16.42 98.8175019,16.5024992 98.4425,16.6675 C98.0674981,16.8325008 97.7450014,17.0599985 97.475,17.35 C97.2049987,17.6400014 96.9950008,17.982498 96.845,18.3775 C96.6949993,18.772502 96.62,19.2049976 96.62,19.675 C96.62,20.1550024 96.6949993,20.594998 96.845,20.995 C96.9950008,21.395002 97.2024987,21.7374986 97.4675,22.0225 C97.7325013,22.3075014 98.0499982,22.5299992 98.42,22.69 C98.7900019,22.8500008 99.1949978,22.93 99.635,22.93 C100.145003,22.93 100.589998,22.830001 100.97,22.63 C101.350002,22.429999 101.654999,22.1700016 101.885,21.85 L103.67,23.53 Z M107.765,25 L107.765,14.38 L114.905,14.38 L114.905,16.555 L110.24,16.555 L110.24,18.55 L114.65,18.55 L114.65,20.605 L110.24,20.605 L110.24,22.81 L115.175,22.81 L115.175,25 L107.765,25 Z M124.415,16.57 L124.415,25 L121.85,25 L121.85,16.57 L118.85,16.57 L118.85,14.38 L127.415,14.38 L127.415,16.57 L124.415,16.57 Z M131.585,25 L131.585,14.38 L134.165,14.38 L134.165,25 L131.585,25 Z M148.985,25 L149.045,17.485 L149,17.485 L146.24,25 L144.44,25 L141.755,17.485 L141.71,17.485 L141.77,25 L139.355,25 L139.355,14.38 L143,14.38 L145.415,21.19 L145.475,21.19 L147.785,14.38 L151.49,14.38 L151.49,25 L148.985,25 Z M156.68,25 L156.68,14.38 L163.82,14.38 L163.82,16.555 L159.155,16.555 L159.155,18.55 L163.565,18.55 L163.565,20.605 L159.155,20.605 L159.155,22.81 L164.09,22.81 L164.09,25 L156.68,25 Z M16.8418586,16.7399012 C16.8589786,18.4747308 17.3212194,20.0802685 18.2342876,21.5566927 C18.2845777,21.6381912 18.3077611,21.736453 18.3434278,21.8268682 C18.256401,21.7838898 18.1561775,21.7566047 18.0841307,21.6959713 C15.3593711,19.4015307 14.2561992,16.4686558 14.9089003,12.9877615 C15.5801481,9.4086055 17.8080702,7.06619321 21.2609661,6.04077481 C24.6555468,5.03301144 27.6845436,5.88473288 30.2545096,8.32826034 C30.3162131,8.38675377 30.3565165,8.46753891 30.4066282,8.53815903 C30.2714513,8.49946063 30.1275361,8.47877393 30.0018109,8.41974549 C23.9022655,5.55588565 16.8201019,10.0324166 16.8418586,16.7399012 Z M32.5500202,29.3928688 C34.0840461,25.9510296 34.0761994,22.6108406 31.7596455,19.4990971 C28.9475024,15.7212773 23.797762,14.7031706 19.7103551,17.0496846 C19.5544915,17.1392081 19.3781196,17.1928865 19.2111993,17.2629716 C19.3208745,17.1072863 19.4171746,16.9400094 19.5423648,16.7976992 C23.0318191,12.8285274 29.0650243,12.6173804 32.8644224,16.328325 C36.5083135,19.8878644 36.3613666,25.8474178 32.5423518,29.3917988 L32.5500202,29.3928688 Z M18.4357155,24.0109915 C13.2406784,23.9986865 9.42647858,20.7041509 8.81622088,16.2681018 C8.19579817,11.7603625 10.9608612,7.53242866 15.3378819,6.29960824 C15.4623588,6.26447652 15.595039,6.25894818 15.7239742,6.23968814 C15.6540674,6.31708494 15.5959307,6.41142343 15.5126489,6.46991687 C12.0727714,8.88633762 10.6664323,12.9996029 11.9434795,16.9190195 C13.1889616,20.741601 16.8328528,23.2990836 20.9341697,23.2323869 C21.0561499,23.2304252 21.1786651,23.2616336 21.301002,23.2775053 C21.1900785,23.3409921 21.086645,23.4369355 20.9675181,23.4635073 C19.9158846,23.6978377 18.8613979,23.919863 18.4357155,24.0109915 Z M20.8111908,34.9999279 C20.5197937,34.9380462 19.6885806,34.7613175 18.8573675,34.5845889 C19.555187,34.4388903 20.2649549,34.3351001 20.9488644,34.1407165 C24.638944,33.0910447 27.1668232,30.0336929 27.5866206,26.1490513 C27.9686113,22.6175103 26.0659697,19.043526 22.880931,17.3006713 C22.7478941,17.2279112 22.6346522,17.1191277 22.5119587,17.0271075 C22.671389,17.0374509 22.8333159,17.0329926 22.9897145,17.0602776 C27.6155107,17.8688423 30.8572595,22.1028395 30.4401371,26.7874857 C30.0308614,31.3865318 26.022278,35.018653 20.8111908,34.9999279 Z M25.1305563,22.6168862 C25.1127229,27.7899882 21.7407906,31.6029397 17.2316246,32.1923323 C12.7304837,32.7808333 8.4709848,29.9933003 7.28470946,25.679588 C7.25474941,25.5706262 7.25920775,25.4522126 7.2477944,25.3382574 C7.32982787,25.4147626 7.42630636,25.4809243 7.49139814,25.5697345 C9.95008396,28.9306102 14.0205492,30.3216125 17.8584673,29.1089438 C21.8117673,27.8597167 24.2511931,24.4818993 24.3284116,20.153742 C24.3301949,20.0565502 24.3578367,19.9595367 24.3733517,19.8623448 C24.4388001,19.94848 24.5416986,20.0260551 24.5641687,20.1223553 C24.8063457,21.157047 25.0356828,22.1947704 25.1305563,22.6168862 Z M21.3343325,5.00000188 C21.634468,5.06081365 22.4713878,5.22987394 23.3083075,5.39911256 C22.605138,5.55069615 21.8912685,5.664473 21.2007606,5.86028334 C17.6660097,6.8626967 14.9997435,9.90043183 14.6206062,13.4599712 C14.1836888,17.5614664 15.8288166,20.64646 19.3592875,22.7475869 C19.4566577,22.8055453 19.5426145,22.8822288 19.6340997,22.9501739 C19.5258512,22.9537406 19.414571,22.9758539 19.3100675,22.9583772 C14.6639413,22.1811993 11.3244656,17.9853655 11.6948646,13.3943444 C12.0770336,8.6590514 16.0383586,4.99697021 21.3343325,5.00000188 Z M33.4279388,25.0217866 C33.4359638,29.0499867 30.6411191,32.7004762 26.7714576,33.7125196 C26.6608907,33.741588 26.5426555,33.7419446 26.4278087,33.7558547 C26.5053838,33.6763179 26.5731506,33.583406 26.6619607,33.5192059 C30.0861448,31.0396551 31.4842805,26.9766799 30.2289901,23.1446467 C28.9478412,19.2345034 25.4018552,16.7314125 21.2015631,16.7679709 C21.0826146,16.7690409 20.9633094,16.7262409 20.8441825,16.7041275 C20.9602777,16.6442074 21.0715579,16.5712689 21.1930031,16.5263289 C27.1126098,14.3335385 33.4154555,18.7109159 33.4279388,25.0217866 Z M18.2990049,34.352773 C15.8963158,34.2998079 13.8030356,33.4805432 12.0517994,31.8200787 C11.9485442,31.7221736 11.8723957,31.5955567 11.7837639,31.4823148 C11.9169791,31.5181599 12.0592894,31.5345666 12.1818046,31.5923467 C15.8314024,33.3134446 20.2424849,32.4119681 22.9866828,29.3804746 C25.6638274,26.4233463 26.0665047,21.9662537 23.9710845,18.5219179 C23.9006427,18.4061794 23.8640843,18.2697541 23.8118326,18.1431373 C23.9215077,18.2148274 24.0386729,18.2770658 24.1397881,18.358921 C27.0924581,20.7489483 28.2061517,24.7965868 26.9032461,28.3932196 C25.6160339,31.9470523 22.0996513,34.3813064 18.2990049,34.352773 Z M22.9276722,22.6257672 C21.3820546,24.9976045 19.0690674,26.050308 16.3630328,26.2841034 C12.6198098,26.6070656 9.0456471,24.4620686 7.47434945,21.0685579 C5.91286014,17.6960905 6.62530301,13.6295486 9.25019578,10.9584675 C9.34417761,10.8627023 9.47222116,10.8002855 9.58457135,10.7223537 C9.53749127,10.8437989 9.49772287,10.9686325 9.44261777,11.085976 C7.63645472,14.9290658 8.64724976,19.4715802 11.8955969,22.1036063 C15.073859,24.6791006 19.8968921,24.9030877 22.9351622,22.6161372 L22.9276722,22.6257672 Z M26.1328092,7.72445832 C30.194536,7.71340163 33.7899204,10.4317412 34.8709789,14.3340378 C34.9053973,14.4585147 34.9109257,14.5911949 34.929829,14.7201301 C34.8451205,14.6316767 34.746502,14.5528532 34.6774869,14.4535214 C32.3696714,11.1333057 28.1636726,9.68166996 24.3195128,10.881677 C20.4041978,12.1043324 17.8217484,15.62553 17.8253151,19.733267 C17.8254934,19.8775389 17.8030234,20.0218108 17.7912534,20.166261 C17.7104682,20.0378608 17.6041814,19.9190906 17.552643,19.7801687 C15.400156,13.9771922 19.8401285,7.74140001 26.1328092,7.72445832 Z M6.00008312,19.7537932 C6.06695823,19.4272643 6.23851519,18.5903445 6.40989381,17.7530681 C6.55220405,18.4296659 6.6600959,19.1157154 6.84253121,19.7810782 C7.82871621,23.3778893 10.829358,25.955167 14.5684793,26.4416611 C18.2728255,26.9235186 21.8373582,25.1234189 23.7876149,21.7894716 C23.8511016,21.6810447 23.9433001,21.5893813 24.0223019,21.4896928 C24.0240853,21.615418 24.0467336,21.7448882 24.0253336,21.8665117 C23.2217622,26.4172294 18.92089,29.7335217 14.3724906,29.3133676 C9.56194081,28.8689602 5.98010975,25.0076804 6.00008312,19.7537932 Z M36.1586726,20.2001622 C36.0903708,20.5199144 35.9068655,21.3794826 35.7235385,22.239229 C35.5844383,21.5242895 35.5202382,20.7845616 35.2939328,20.0983337 C34.0625391,16.3613524 31.4884714,14.0706569 27.5895631,13.5904044 C23.5583313,13.0935669 20.4533644,14.7561714 18.3476008,18.2456256 C18.2903557,18.3404991 18.2058256,18.4193226 18.1341355,18.505636 C18.1302121,18.3808025 18.1043537,18.2518673 18.1255755,18.1314921 C18.9378852,13.5459993 23.1906073,10.2883788 27.8312052,10.6928395 C32.5418882,11.1035419 36.1369159,14.9653567 36.1586726,20.2001622 Z" id="path-1"></path>
    </defs>
    <g id="Brand/Logo/logo-02" stroke="none" stroke-width="1" fill="none" fill-rule="evenodd">
        <rect id="#" x="0" y="0" width="175" height="40"></rect>
        <mask id="mask-2" fill="white">
            <use xlink:href="#path-1"></use>
        </mask>
        <use id="Logo" fill="#FFFFFF" xlink:href="#path-1"></use>
        <g id="Brand/Color/White" mask="url(#mask-2)" fill="#FFFFFF">
            <rect id="Color" x="0" y="0" width="175" height="40"></rect>
        </g>
    </g>
</svg>
